!!!COM:	Du Fay, Guillaume
!!!CDT:	~1397/08/05/-1474/11/27
!!!OPR:	Missa L'homme arm&eacute;
!!!ONM:	1
!!!OTL:	Kyrie
!!!AGN:	Mass; Kyrie
!!!SCT:	Duf1004a
!!!SCA:	Duf1004a
!!!voices:	4
!!!voices-OPR:	4
!!!ONB:	For this mass, MenCircle tempo should be 80, MenC 120, Men3 180
!!midi-transpose: -2
**kern	**text	**kern	**text	**kern	**text	**kern	**text
*staff4	*staff4	*staff3	*staff3	*staff2	*staff2	*staff1	*staff1
*Ivox	*	*Ivox	*	*Ivox	*	*Ivox	*
*I"Bassus	*	*I"Tenor	*	*I"Contra	*	*I"Cantus	*
*I'B	*	*I'T	*	*I'C	*	*I'Cn	*
*>[A,B,C]	*>[A,B,C]	*>[A,B,C]	*>[A,B,C]	*>[A,B,C]	*>[A,B,C]	*>[A,B,C]	*>[A,B,C]
*>A	*>A	*>A	*>A	*>A	*>A	*>A	*>A
*clefF4	*	*clefGv2	*	*clefGv2	*	*clefG2	*
*k[b-]	*	*k[b-]	*	*k[b-]	*	*k[]	*
*M3/1	*	*M3/1	*	*M3/1	*	*M3/1	*
*met(O)	*	*met(O)	*	*met(O)	*	*met(O)	*
*MM320	*MM320	*MM320	*MM320	*MM320	*MM320	*MM320	*MM320
!!section: Kyrie I
!!!OMD: Kyrie I
=1-	=1-	=1-	=1-	=1-	=1-	=1-	=1-
0G	Ky-	0.r	.	0d	Ky-	1.g	Ky-
.	.	.	.	.	.	2a/	.
1G	.	.	.	1g	.	1b	.
=2	=2	=2	=2	=2	=2	=2	=2
1A	.	0.r	.	2f\	-ri-	1cc	-ri-
.	.	.	.	2e\	.	.	.
0G	.	.	.	1.g	-e	2b\	-e
.	.	.	.	.	.	1dd	.
.	.	.	.	2f\	.	2cc\	.
=3	=3	=3	=3	=3	=3	=3	=3
1G	-ri-	0.r	.	1d	.	2b\	.
.	.	.	.	.	.	2g/	.
0F	.	.	.	2r	.	1a	.
.	.	.	.	2c\	e-	.	.
.	.	.	.	2d\	.	2r	.
.	.	.	.	2f\	.	2a/	e-
=4	=4	=4	=4	=4	=4	=4	=4
0.G	-e	0.r	.	2e\	.	2.b\	.
.	.	.	.	1d	.	.	.
.	.	.	.	.	.	2g/	.
.	.	.	.	.	.	4f/	.
.	.	.	.	1g	.	2e/	.
.	.	.	.	.	.	[1d	.
.	.	.	.	[2g\	.	.	.
=5	=5	=5	=5	=5	=5	=5	=5
1r	.	0G	Ky-	4g\]	.	2d/]	.
.	.	.	.	4f\	.	.	.
.	.	.	.	4e\	.	1g	.
.	.	.	.	4d\	.	.	.
0B-	e-	.	.	1d	.	.	.
.	.	.	.	.	.	2f/	.
.	.	1G	-ri-	2r	.	1g	.
.	.	.	.	2d\	.	.	.
=6	=6	=6	=6	=6	=6	=6	=6
1A	-lei-	0c	-e	1e	.	2r	.
.	.	.	.	.	.	1a	.
0F	.	.	.	1.f	-lei-	.	.
.	.	.	.	.	.	2g/	.
.	.	1c	e-	.	.	1a	.
.	.	.	.	2d\	.	.	.
=7	=7	=7	=7	=7	=7	=7	=7
1G	.	1B-	-lei-	[0.d	-son,	2b-\	-lei-
.	.	.	.	.	.	2g/	.
0D	-son,	0A	.	.	.	2a/	.
.	.	.	.	.	.	1f#i	.
.	.	.	.	.	.	2e/	.
=8	=8	=8	=8	=8	=8	=8	=8
1r	.	0.G	-son,	0d]	.	1g	-son,
1G	Ky-	.	.	.	.	1r	.
1B-	.	.	.	1d	Ky-	1g	Ky-
=9	=9	=9	=9	=9	=9	=9	=9
2A\	.	0.r	.	2e\	.	2.a/	.
1d	.	.	.	1f	.	.	.
.	.	.	.	.	.	4g/	.
.	.	.	.	.	.	4f/	.
.	.	.	.	.	.	4d/	.
2c\	.	.	.	2g\	.	2e/	.
1d	.	.	.	2f\	.	2d/	.
.	.	.	.	2d\	.	2a/	.
=10	=10	=10	=10	=10	=10	=10	=10
2A\	.	0.r	.	2a\	.	2r	.
2B-\	.	.	.	4g\	.	2dd\	.
.	.	.	.	2f\	.	.	.
2A\	.	.	.	.	.	2cc\	.
.	.	.	.	4e\	.	.	.
2c\	.	.	.	2e\	.	1a	.
1B-	-ri-	.	.	2.d\	-ri-	.	.
.	.	.	.	.	.	2g/	-ri-
.	.	.	.	4c\	.	.	.
=11	=11	=11	=11	=11	=11	=11	=11
0A	-e	0.r	.	0e	-e	1a	-e,
.	.	.	.	.	.	1r	.
1F	e-	.	.	1f	e-	1a	e-
=12	=12	=12	=12	=12	=12	=12	=12
1G	.	0.r	.	2d\	.	1b	.
.	.	.	.	2g\	.	.	.
0A	.	.	.	2f\	.	1.cc	.
.	.	.	.	1e	.	.	.
.	.	.	.	2e\	.	2b\	.
=13	=13	=13	=13	=13	=13	=13	=13
1B-	-lei-	0.r	.	2r	.	2.dd\	-lei-
.	.	.	.	1d	.	.	.
.	.	.	.	.	.	4cc\	.
2G\	.	.	.	.	.	2b\	.
2A\	.	.	.	2c\	.	1a	.
2F\	.	.	.	2f\	-lei-	.	.
[2G\	.	.	.	4e\	.	2b\	.
.	.	.	.	4d\	.	.	.
=14	=14	=14	=14	=14	=14	=14	=14
2G\]	.	0.r	.	4c\	.	2g/	.
.	.	.	.	4B-\	.	.	.
2D\	.	.	.	1A	.	4a/	.
.	.	.	.	.	.	4f/	.
2F\	.	.	.	.	.	4g/	.
.	.	.	.	.	.	4a/	.
2G\	.	.	.	2B-\	.	1d	.
1E	.	.	.	2.G/	.	.	.
.	.	.	.	.	.	2c#i/	.
.	.	.	.	4F/	.	.	.
=15	=15	=15	=15	=15	=15	=15	=15
0.D	-son,	0.r	.	0.A	-son,	1d	-son,
.	.	.	.	.	.	1r	.
.	.	.	.	.	.	1f	Ky-
=16	=16	=16	=16	=16	=16	=16	=16
1r	.	1d	Ky-	0G	Ky-	2g/	.
.	.	.	.	.	.	2a/	.
1r	.	1d	-ri-	.	.	1.b	.
1d	Ky-	1G	-e	1g	-ri-	.	.
.	.	.	.	.	.	2cc\	.
=17	=17	=17	=17	=17	=17	=17	=17
1d	-ri-	1r	.	1f	-e	1a	-ri-
0G	.	1d	Ky-	0g	.	2.b\	-e
.	.	.	.	.	.	4cc\	.
.	.	1d	-ri-	.	.	1dd	.
=18	=18	=18	=18	=18	=18	=18	=18
1B-	-e-	1d	-e-	1G	e-	2r	.
.	.	.	.	.	.	2g/	e-
1A	-lei-	0c	-lei-	1e	-lei-	2a/	-lei-
.	.	.	.	.	.	2.cc\	.
1F	.	.	.	1f	.	.	.
.	.	.	.	.	.	4b\	.
.	.	.	.	.	.	2a/	.
=19	=19	=19	=19	=19	=19	=19	=19
1G	.	1B-	.	2d\	.	1g	.
.	.	.	.	2B-\	.	.	.
1F	.	0A	.	1c	.	1a	.
1D	-son,	.	.	1d	.	1f	.
=20	=20	=20	=20	=20	=20	=20	=20
2r	.	1G	-son,	1d	-son,	2g/	-son,
1d	Ky-	.	.	.	.	2b-\	Ky-
.	.	2F/	Ky-	1r	.	2a/	.
2B-\	.	1G	.	.	.	2g/	-ri-
1G	-ri-	.	.	2d\	Ky-	2.dd\	-e
.	.	2B-\	.	2e\	.	.	.
.	.	.	.	.	.	4b-i\	.
=21	=21	=21	=21	=21	=21	=21	=21
0F	-e	2A/	.	1.f	.	2cc\	.
.	.	2B-\	-ri-	.	.	2b-i\	.
.	.	1c	-e	.	.	1a	.
.	.	.	.	2e\	-ri-	.	.
2.G\	e-	2B-\	e-	2d\	-e	2g/	.
.	.	[2d\	-lei-	2r	.	2b-i\	e-
4F\	.	.	.	.	.	.	.
=22	=22	=22	=22	=22	=22	=22	=22
2G\	-lei-	2d\]	.	2B-\	-e-	4cc\	-lei-
.	.	.	.	.	.	4b-i\	.
2A\	.	2c\	.	2c\	.	4a/	.
.	.	.	.	.	.	4g/	.
2D\	.	2d\	.	2A/	.	2f/	.
2G\	.	2B-\	.	2B-\	.	2g/	.
2F\	.	1A	.	2c\	.	2a/	.
2D\	-son,	.	.	2d\	.	2f#i/	.
=23	=23	=23	=23	=23	=23	=23	=23
2r	.	[0.Gl	-son.	1B-	-lei-	[0.gl	-son.
1d	e-	.	.	.	.	.	.
.	.	.	.	0G	.	.	.
2d\	-lei-	.	.	.	.	.	.
1B-	.	.	.	.	.	.	.
=24	=24	=24	=24	=24	=24	=24	=24
0.Gl	-son.	0.G]	.	0.dl	-son.	0.g]	.
!!LO:LB:i:g=z
=25||	=25||	=25||	=25||	=25||	=25||	=25||	=25||
*>B	*>B	*>B	*>B	*>B	*>B	*>B	*>B
*clefF4	*	*clefGv2	*	*clefGv2	*	*clefG2	*
*k[b-]	*	*k[b-]	*	*k[b-]	*	*k[]	*
*M2/1	*	*M2/1	*	*M2/1	*	*M2/1	*
*met(C)	*	*met(C)	*	*met(C)	*	*met(C)	*
*MM480	*MM480	*MM480	*MM480	*MM480	*MM480	*MM480	*MM480
!!section: Christe
!!!OMD: Christe
0r	.	0r	.	[0d	Chri-	0d	Chri-
=26.	=26.	=26.	=26.	=26.	=26.	=26.	=26.
0r	.	0r	.	0d_	.	1.f	.
.	.	.	.	.	.	2g/	.
=27	=27	=27	=27	=27	=27	=27	=27
0r	.	0r	.	0d_	.	1a	.
.	.	.	.	.	.	1b-i	.
=28.	=28.	=28.	=28.	=28.	=28.	=28.	=28.
0r	.	0r	.	0d]	.	1a	.
.	.	.	.	.	.	1dd	.
=29	=29	=29	=29	=29	=29	=29	=29
0r	.	0r	.	1.e	.	1cc	.
.	.	.	.	.	.	[1b	.
.	.	.	.	2f\	.	.	.
=30.	=30.	=30.	=30.	=30.	=30.	=30.	=30.
0r	.	0r	.	1g	.	2b\]	.
.	.	.	.	.	.	2a/	.
.	.	.	.	1f	.	[1a	.
=31	=31	=31	=31	=31	=31	=31	=31
0r	.	0r	.	0a	.	2a/]	.
.	.	.	.	.	.	2g/	.
.	.	.	.	.	.	2f/	.
.	.	.	.	.	.	2d/	.
=32.	=32.	=32.	=32.	=32.	=32.	=32.	=32.
0r	.	0r	.	1g	.	1e	-ste
.	.	.	.	1a	.	1d	.
=33	=33	=33	=33	=33	=33	=33	=33
0r	.	0r	.	1.f	-ste	1r	.
.	.	.	.	.	.	1d	e-
.	.	.	.	[2d\	e-	.	.
=34.	=34.	=34.	=34.	=34.	=34.	=34.	=34.
0r	.	0r	.	2d\]	.	2f/	.
.	.	.	.	2c\	.	2e/	.
.	.	.	.	1d	.	2f/	.
.	.	.	.	.	.	2d/	.
=35	=35	=35	=35	=35	=35	=35	=35
0r	.	0r	.	1A	-lei-	2e/	.
.	.	.	.	.	.	2.a/	.
.	.	.	.	1c	.	.	.
.	.	.	.	.	.	4g/	.
.	.	.	.	.	.	2a/	.
=36.	=36.	=36.	=36.	=36.	=36.	=36.	=36.
0r	.	0r	.	0B-	.	2b-\	-lei-
.	.	.	.	.	.	1g	.
.	.	.	.	.	.	2f/	.
=37	=37	=37	=37	=37	=37	=37	=37
0r	.	0r	.	1A	-son,	0a	-son,
.	.	.	.	2r	.	.	.
.	.	.	.	[2d\	Chri-	.	.
=38.	=38.	=38.	=38.	=38.	=38.	=38.	=38.
0r	.	0r	.	2d\]	.	2r	.
.	.	.	.	2c\	.	1a	Chri-
.	.	.	.	2d\	.	.	.
.	.	.	.	2f\	.	2dd\	.
=39	=39	=39	=39	=39	=39	=39	=39
0r	.	0r	.	2e\	.	2cc\	.
.	.	.	.	2f\	.	2dd\	.
.	.	.	.	2g\	.	1ee	.
.	.	.	.	[2a\	.	.	.
=40.	=40.	=40.	=40.	=40.	=40.	=40.	=40.
0r	.	0r	.	2a\]	.	2ff\	.
.	.	.	.	2g\	.	2ee\	.
.	.	.	.	2a\	.	2ff\	.
.	.	.	.	2f\	.	2dd\	.
=41	=41	=41	=41	=41	=41	=41	=41
0r	.	0r	.	2g\	.	2ee\	.
.	.	.	.	2d\	.	2dd\	.
.	.	.	.	1e	.	2b\	.
.	.	.	.	.	.	2cc\	.
=42.	=42.	=42.	=42.	=42.	=42.	=42.	=42.
0r	.	0r	.	2d\	.	2dd\	-ste
.	.	.	.	1f	.	2r	.
.	.	.	.	.	.	2a/	e-
.	.	.	.	2g\	.	[2b\	.
=43	=43	=43	=43	=43	=43	=43	=43
0r	.	0r	.	2e\	-ste	2b\]	.
.	.	.	.	2r	.	2cc\	.
.	.	.	.	2f\	e-	2dd\	.
.	.	.	.	2e\	.	2ee\	.
=44.	=44.	=44.	=44.	=44.	=44.	=44.	=44.
0r	.	0r	.	2f\	.	2a/	.
.	.	.	.	2g\	.	2b\	.
.	.	.	.	2f\	-lei-	2a/	.
.	.	.	.	4e\	.	2dd\	.
.	.	.	.	4d\	.	.	.
=45	=45	=45	=45	=45	=45	=45	=45
0r	.	0r	.	2c\	.	2ee\	-lei-
.	.	.	.	2f\	.	1cc#i	.
.	.	.	.	1e	.	.	.
.	.	.	.	.	.	2b\	.
=46.	=46.	=46.	=46.	=46.	=46.	=46.	=46.
0r	.	0r	.	0d	-son,	[0dd	-son,
=47	=47	=47	=47	=47	=47	=47	=47
0r	.	0r	.	0r	.	0dd]	.
=48.	=48.	=48.	=48.	=48.	=48.	=48.	=48.
0r	.	0r	.	1.G	Chri-	0r	.
.	.	.	.	2A/	.	.	.
=49	=49	=49	=49	=49	=49	=49	=49
0r	.	0r	.	1B-	.	1.g	Chri-
.	.	.	.	1c	.	.	.
.	.	.	.	.	.	2a/	.
=50.	=50.	=50.	=50.	=50.	=50.	=50.	=50.
0r	.	0r	.	0d	-ste	1b-	.
.	.	.	.	.	.	2a/	.
.	.	.	.	.	.	2dd\	.
=51	=51	=51	=51	=51	=51	=51	=51
0r	.	0r	.	1e	e-	2cc\	.
.	.	.	.	.	.	4b-\	.
.	.	.	.	.	.	4cc\	.
.	.	.	.	1f	.	[1dd	.
=52.	=52.	=52.	=52.	=52.	=52.	=52.	=52.
0r	.	0r	.	1.d	-lei-	2dd\]	.
.	.	.	.	.	.	2cc\	.
.	.	.	.	.	.	2b-\	.
.	.	.	.	2c\	.	2a/	.
=53	=53	=53	=53	=53	=53	=53	=53
0r	.	0r	.	1d	.	1b-	.
.	.	.	.	1B-	.	1g	.
=54.	=54.	=54.	=54.	=54.	=54.	=54.	=54.
0r	.	0r	.	0A	.	2f#i/	.
.	.	.	.	.	.	1f#i	.
.	.	.	.	.	.	2e/	.
=55	=55	=55	=55	=55	=55	=55	=55
0r	.	0r	.	[0G	-son	0g	-ste,
=56.	=56.	=56.	=56.	=56.	=56.	=56.	=56.
0r	.	0d	Chri-	0G]	.	1r	.
.	.	.	.	.	.	1g	Chri-
=57	=57	=57	=57	=57	=57	=57	=57
1D	Chri-	0d	.	0r	.	1f	.
1G	.	.	.	.	.	1b-i	.
=58.	=58.	=58.	=58.	=58.	=58.	=58.	=58.
1F	-ste,	0d	.	0r	.	1.a	-ste
1D	.	.	.	.	.	.	.
.	.	.	.	.	.	2g/	.
=59	=59	=59	=59	=59	=59	=59	=59
1r	.	0G	-ste,	0r	.	1g	.
[1d	Chri-	.	.	.	.	1r	.
=60.	=60.	=60.	=60.	=60.	=60.	=60.	=60.
1d]	.	0r	.	0r	.	2bn\	e-
.	.	.	.	.	.	2cc\	.
1B-	-ste	.	.	.	.	1dd	.
=61	=61	=61	=61	=61	=61	=61	=61
1r	.	0g	Chri-	0r	.	1.ee	-lei-
[1c	e-	.	.	.	.	.	.
.	.	.	.	.	.	2dd\	.
=62.	=62.	=62.	=62.	=62.	=62.	=62.	=62.
1c]	.	1g	-ste	0r	.	1cc	.
1d	.	[1f	.	.	.	2b\	.
.	.	.	.	.	.	2a/	.
=63	=63	=63	=63	=63	=63	=63	=63
0d	-lei-	1f]	.	0r	.	1.b	.
.	.	1f	e-	.	.	.	.
.	.	.	.	.	.	2a/	.
=64.	=64.	=64.	=64.	=64.	=64.	=64.	=64.
0c	.	0g	-lei-	0r	.	0cc	-son,
=65	=65	=65	=65	=65	=65	=65	=65
1c	.	0e	.	0r	.	0r	.
1A	.	.	.	.	.	.	.
=66.	=66.	=66.	=66.	=66.	=66.	=66.	=66.
1.B-	-son,-	0d	-son,	[0G	Chri-	0r	.
2c\	.	.	.	.	.	.	.
=67	=67	=67	=67	=67	=67	=67	=67
0d	.	0r	.	0G]	.	0r	.
=68.	=68.	=68.	=68.	=68.	=68.	=68.	=68.
1r	.	0g	Chri-	1.B-	.	0r	.
[1G	-Chri-	.	.	.	.	.	.
.	.	.	.	2c\	.	.	.
=69	=69	=69	=69	=69	=69	=69	=69
1G]	.	1g	-ste	2.d\	.	0r	.
.	.	.	.	4e-i\	.	.	.
1D	.	[1f	.	2d\	.	.	.
.	.	.	.	4c\	.	.	.
.	.	.	.	4B-\	.	.	.
=70.	=70.	=70.	=70.	=70.	=70.	=70.	=70.
0D	-ste,	1f]	.	0A	-ste	0r	.
.	.	1f	e-	.	.	.	.
=71	=71	=71	=71	=71	=71	=71	=71
1r	.	0g	-lei-	1G	e-	0r	.
1G	e-	.	.	1B-	.	.	.
=72.	=72.	=72.	=72.	=72.	=72.	=72.	=72.
1B-	-lei-	1.g	.	1G	.	0r	.
[1G	.	.	.	1d	.	.	.
.	.	4f\	.	.	.	.	.
.	.	4e\	.	.	.	.	.
=73	=73	=73	=73	=73	=73	=73	=73
1G]	.	0d	-son	1B-	.	0g	Chri-
2B-\	.	.	.	[1G	.	.	.
2c\	.	.	.	.	.	.	.
=74.	=74.	=74.	=74.	=74.	=74.	=74.	=74.
1d	.	0r	.	1G]	.	2b\	-ste
.	.	.	.	.	.	2cc\	.
1B-	.	.	.	1G	.	[1dd	.
=75	=75	=75	=75	=75	=75	=75	=75
1.G	.	0g	e-	1.B-	-lei-	1dd]	.
.	.	.	.	.	.	1ee	.
4F\	.	.	.	2c\	.	.	.
4E\	.	.	.	.	.	.	.
=76.	=76.	=76.	=76.	=76.	=76.	=76.	=76.
0F	.	0a	-lei-	1A	.	1cc	.
.	.	.	.	1c	.	1ff	e-
=77	=77	=77	=77	=77	=77	=77	=77
1G	-son,	1g	.	0B-	-son,	2ee\	-lei-
.	.	.	.	.	.	2dd\	.
1r	.	1f	.	.	.	1dd	.
=78.	=78.	=78.	=78.	=78.	=78.	=78.	=78.
0A	e-	0e	.	1r	.	2cc#i\	.
.	.	.	.	.	.	1cc#i	.
.	.	.	.	1c	e-	.	.
.	.	.	.	.	.	2b\	.
=79	=79	=79	=79	=79	=79	=79	=79
1D	.	[0dl	-son.	1A	.	1.dd	-son,
[1G	-lei-	.	.	[1B-	-lei-	.	.
.	.	.	.	.	.	2cc\	e-
=80.	=80.	=80.	=80.	=80.	=80.	=80.	=80.
1G]	.	0d_	.	2B-\]	.	2b\	.
.	.	.	.	2c\	.	2g/	.
1F	.	.	.	1A	.	1a	.
=81	=81	=81	=81	=81	=81	=81	=81
0G	.	0d_	.	1G	.	2b\	-lei-
.	.	.	.	.	.	2g/	.
.	.	.	.	1B-	.	[1g	.
=82.	=82.	=82.	=82.	=82.	=82.	=82.	=82.
0D	.	0d_	.	0A	.	1g]	.
.	.	.	.	.	.	1f#i	.
=83	=83	=83	=83	=83	=83	=83	=83
*^	*	*	*	*	*	*	*
0B-l\	0dl/	-son.	0d]	.	0Gl	-son.	0gl	-son.
*v	*v	*	*	*	*	*	*	*
!!LO:LB:i:g=z
=84||	=84||	=84||	=84||	=84||	=84||	=84||	=84||
*>C	*>C	*>C	*>C	*>C	*>C	*>C	*>C
*clefF4	*	*clefGv2	*	*clefGv2	*	*clefG2	*
*k[b-]	*	*k[b-]	*	*k[b-]	*	*k[]	*
*M3/1	*	*M3/1	*	*M3/1	*	*M3/1	*
*met(O)	*	*met(O)	*	*met(O)	*	*met(O)	*
*MM320	*MM320	*MM320	*MM320	*MM320	*MM320	*MM320	*MM320
!!section: Kyrie II
!!!OMD: Kyrie II
!	!	!LO:TX:Z=8:X=-40:t=[T sung twice, the second time at double speed and omitting the opening rests.]	!	!	!	!	!
0G	Ky-	0.r	.	1r	.	1g	Ky-
.	.	.	.	1G	Ky-	2b\	.
.	.	.	.	.	.	2cc\	.
1G	-ri-	.	.	2.B-\	.	[1dd	.
.	.	.	.	4c\	.	.	.
=85	=85	=85	=85	=85	=85	=85	=85
2B-\	-e	0.r	.	2d\	.	2dd\]	.
2c\	.	.	.	2e\	.	2cc\	.
0d	.	.	.	2g\	.	2b\	.
.	.	.	.	1f#i	.	2a/	-ri-
.	.	.	.	.	.	1a	-e
.	.	.	.	2e\	-ri-	.	.
=86	=86	=86	=86	=86	=86	=86	=86
1G	e-	0.r	.	1g	-e	2r	.
.	.	.	.	.	.	2b\	e-
0A	-lei-	.	.	1e	e-	2a/	.
.	.	.	.	.	.	2.cc\	-lei-
.	.	.	.	1f	-lei-	.	.
.	.	.	.	.	.	4b\	.
.	.	.	.	.	.	2cc\	.
=87	=87	=87	=87	=87	=87	=87	=87
0G	.	0.r	.	1g	.	2dd\	.
.	.	.	.	.	.	2.b\	.
.	.	.	.	1d	-son,	.	.
.	.	.	.	.	.	4g/	.
.	.	.	.	.	.	2b\	.
1F	.	.	.	1r	.	1a	.
=88	=88	=88	=88	=88	=88	=88	=88
1.G	-son,	0.r	.	1d	Ky-	2.g/	.
.	.	.	.	.	.	4f/	.
.	.	.	.	1B-	-ri-	4e/	.
.	.	.	.	.	.	4d/	.
2F\	.	.	.	.	.	2d/	-son,
1E	.	.	.	1c	.	2r	.
.	.	.	.	.	.	2g/	Ky-
=89	=89	=89	=89	=89	=89	=89	=89
2D\	.	0.r	.	0d	-e	2f/	.
1G	Ky-	.	.	.	.	2g/	.
.	.	.	.	.	.	2b-\	.
2F\	.	.	.	.	.	2a/	-ri-
2G\	.	.	.	2r	.	2g/	-e
2B-\	.	.	.	2g\	e-	2dd\	.
=90	=90	=90	=90	=90	=90	=90	=90
1A	-ri-	0.r	.	2.f\	-lei-	2r	.
.	.	.	.	.	.	2cc\	e-
.	.	.	.	4e\	.	.	.
1G	-e	.	.	1g	-son,	2dd\	.
.	.	.	.	.	.	1b-i	.
[1d	e-	.	.	2r	.	.	.
.	.	.	.	[2f\	e-	2a/	.
=91	=91	=91	=91	=91	=91	=91	=91
2d\]	.	0.r	.	2f\]	.	2b-i\	.
2c\	.	.	.	2e\	.	1a	.
2d\	-lei-	.	.	2f\	-lei-	.	.
2B-\	.	.	.	2d\	.	2.dd\	-lei-
1A	.	.	.	1e	.	.	.
.	.	.	.	.	.	4cc\	.
.	.	.	.	.	.	2cc\	.
=92	=92	=92	=92	=92	=92	=92	=92
2B-\	.	0.r	.	1d	.	2dd\	.
2G\	.	.	.	.	.	2b-i\	.
2A\	.	.	.	2.c\	.	2a/	-son,
1F	.	.	.	.	.	2r	.
.	.	.	.	4B-\	.	.	.
.	.	.	.	2A/	.	2a/	e-
[2G\	.	.	.	2G/	.	2b-i\	.
=93	=93	=93	=93	=93	=93	=93	=93
1G]	.	0.r	.	1B-	.	2.g/	-lei-
.	.	.	.	.	.	4f/	.
2A\	.	.	.	2c\	-son,	2e/	.
2F\	.	.	.	2A/	.	2d/	.
1E	.	.	.	2r	.	2c/	.
.	.	.	.	2c\	e-	2g/	.
=94	=94	=94	=94	=94	=94	=94	=94
2D\	.	0.r	.	2d\	-lei-	2f/	.
1G	.	.	.	2.B-\	.	1e	.
.	.	.	.	4A/	.	.	.
2F\	.	.	.	2A/	.	1d	.
1E	.	.	.	2.G/	.	.	.
.	.	.	.	.	.	2c#i/	.
.	.	.	.	4F/	.	.	.
=95	=95	=95	=95	=95	=95	=95	=95
0D	-son,	0.r	.	1A	.	1d	-son,
.	.	.	.	2B-\	-son,	1r	.
.	.	.	.	2A/	.	.	.
1D	e-	.	.	2r	.	1a	e-
.	.	.	.	[2d\	e-	.	.
=96	=96	=96	=96	=96	=96	=96	=96
1G	-lei-	0.r	.	2d\]	.	1b-	.
.	.	.	.	2e\	.	.	.
1F	.	.	.	1f	.	2a/	.
.	.	.	.	.	.	2cc\	.
1B-	.	.	.	2d\	-lei-	2b-i\	.
.	.	.	.	4e\	.	2g/	.
.	.	.	.	4d\	.	.	.
=97	=97	=97	=97	=97	=97	=97	=97
2A\	.	0.r	.	4c\	.	2f/	.
.	.	.	.	4B-\	.	.	.
2c\	.	.	.	2A/	.	2a/	.
2d\	.	.	.	2G/	.	2b-i\	-lei-
2B-\	.	.	.	1d	.	1g	.
1A	.	.	.	.	.	.	.
.	.	.	.	2c\	.	2f#i/	.
=98	=98	=98	=98	=98	=98	=98	=98
0.G	-son,	0.r	.	0.d	-son,	1g	-son,
.	.	.	.	.	.	1r	.
.	.	.	.	.	.	1r	.
=99	=99	=99	=99	=99	=99	=99	=99
0.r	.	0G	Ky-	1r	.	1.bn	Ky-
.	.	.	.	1.d	Ky-	.	.
.	.	.	.	.	.	2cc\	.
.	.	1G	-ri-	.	.	1dd	-ri-
.	.	.	.	2e\	.	.	.
=100	=100	=100	=100	=100	=100	=100	=100
1.F	Ky-	0c	-e	1.f	.	2cc\	-e
.	.	.	.	.	.	2.a/	.
.	.	.	.	.	.	4g/	.
2G\	.	.	.	2e\	.	2g/	.
1A	-ri-	1c	e-	1c	-ri-	2e/	.
.	.	.	.	.	.	2f/	.
=101	=101	=101	=101	=101	=101	=101	=101
1G	-e	1B-	-lei-	[0.d	-e	1g	.
0D	.	0A	.	.	.	1a	.
.	.	.	.	.	.	2.f#i/	.
.	.	.	.	.	.	4e/	.
=102	=102	=102	=102	=102	=102	=102	=102
1r	.	0G	-son,	0d]	.	1g	.
1r	.	.	.	.	.	1dd	.
1G	e-	1r	.	1d	e-	1b	.
=103	=103	=103	=103	=103	=103	=103	=103
1G	-lei-	1d	Ky-	1B-	.	2r	.
.	.	.	.	.	.	2g/	e-
1D	.	1d	-ri-	2A/	.	2a/	.
.	.	.	.	2B-\	.	2f/	.
1E	.	1G	-e,	2.c\	.	1g	.
.	.	.	.	4B-\	.	.	.
=104	=104	=104	=104	=104	=104	=104	=104
0D	.	1r	.	1d	.	1.a	.
.	.	1d	Ky-	0f	.	.	.
.	.	.	.	.	.	1dd	-lei-
1D	.	1d	-ri-	.	.	.	.
.	.	.	.	.	.	2cc\	.
=105	=105	=105	=105	=105	=105	=105	=105
1G	.	1d	-e-	1g	-lei-	2.b\	.
.	.	.	.	.	.	4a/	.
1A	.	0c	-lei-	1e	.	1cc	.
1F	.	.	.	1f	.	2.a/	.
.	.	.	.	.	.	4g/	.
=106	=106	=106	=106	=106	=106	=106	=106
1G	.	1B-	.	[0.d	-son,	1.g	.
0D	-son,	0A	.	.	.	.	.
.	.	.	.	.	.	2f#i/	.
.	.	.	.	.	.	2f#i/	.
.	.	.	.	.	.	2e/	.
=107	=107	=107	=107	=107	=107	=107	=107
1G	Ky-	0.G	-son,	1d]	.	0g	-son,
2.B-\	-ri-	.	.	1r	.	.	.
4c\	.	.	.	.	.	.	.
1d	.	.	.	2B-\	Ky-	1r	.
.	.	.	.	2c\	.	.	.
=108	=108	=108	=108	=108	=108	=108	=108
0.G	-e,	0.r	.	2d\	-ri-	2d/	Ky-
.	.	.	.	2.g\	-e	2e/	.
.	.	.	.	.	.	2d/	-ri-
.	.	.	.	4f\	.	.	.
.	.	.	.	2e\	.	1g	-e
.	.	.	.	1d	.	.	.
.	.	.	.	.	.	2a/	.
=109	=109	=109	=109	=109	=109	=109	=109
!	!	!LO:TX:X=-10:Z=8:t=Ad medium referas pausas reliquendo priores.	!	!	!	!	!
*	*	*rscale:2	*	*	*	*	*
!	!	!	!	!LO:N:vis=0	!	!	!
2r	.	1G	Ky-	[y1.g	.	2.b\	.
1d	Ky-	.	.	.	.	.	.
.	.	.	.	.	.	4cc\	.
.	.	2G/	-ri-	.	.	2dd\	.
=-	=-	=	=	=-	=-	=-	=-
2c\	.	1c	-e	2g]yy	.	1ee	.
1A	-ri-	.	.	1a	.	.	.
.	.	2c\	e-	.	.	2cc\	.
=110	=110	=110	=110	=110	=110	=110	=110
2G\	-e	2B-\	-lei-	2d\	.	2dd\	.
2A\	.	1A	.	2f\	.	2cc\	.
2c\	.	.	.	2e\	.	2a/	.
=-	=-	=	=	=-	=-	=-	=-
2B-\	.	1G	-son,	1g	.	2r	.
1d	.	.	.	.	.	2b-\	e-
.	.	2r	.	2f\	.	2a/	.
=111	=111	=111	=111	=111	=111	=111	=111
2.G\	.	2d\	Ky-	2g\	.	2b-i\	.
.	.	2d\	-ri-	2r	.	1g	.
4F\	.	.	.	.	.	.	.
2E\	.	2G/	-e,	2c\	e-	.	.
=-	=-	=	=	=-	=-	=-	=-
2D\	.	2r	.	2d\	.	1f	.
2r	.	2d\	Ky-	2B-\	.	.	.
[2B-\	e-	2d\	-ri-	2G/	.	[2g/	.
=112	=112	=112	=112	=112	=112	=112	=112
2B-\]	.	2d\	-e-	2d\	.	2g/]	.
2A\	.	1c	-lei-	2e\	.	1a	-lei-
2F\	-lei-	.	.	2f\	.	.	.
=-	=-	=	=	=-	=-	=-	=-
2G\	.	2B-\	.	1d	.	1g	.
1D	.	1A	.	.	.	.	.
.	.	.	.	2d\	.	2f#i/	.
=113	=113	=113	=113	=113	=113	=113	=113
1r	.	0.Gl	-son.	1d	-lei-	0.gl	-son.
0Gl	-son.	.	.	2B-\	.	.	.
.	.	.	.	2c\	.	.	.
.	.	.	.	1dl	-son.	.	.
*	*	*rscale:1	*	*	*	*	*
==	==	==	==	==	==	==	==
*-	*-	*-	*-	*-	*-	*-	*-
!!!RDF**kern: l=long note in original notation
!!!RDF**kern: i=editorial accidental
!!!ENC:	Planchart/Rodin
!!!END:	2013/12/07/
!!!EED:	Jesse Rodin
!!!EEV:	2013/12/09/
!!!ONB:	Translated from SCORE and edited on 2013/12/09/ by Craig Sapp
!!muse2ps: T^@{OPR}^u^@{ONM}{. }@{OTL}^C^@{COM}^i2I150v85,85,85,130Q8c135
